X: 5
T: Mairi's Wedding
R: polka
M: 2/4
L: 1/8
K: Gmaj
|: D>D DE | GA B2 | AG EG | BA B<d |
D>D DE | GA B2 | AG EC | D2 D2 :|
|: d>d de | dc B2 | AG EG | BA B<d |
d>d de | dc B2 | AG EC | D2 D2 :|


Tune 706	Setting 23562

